X: 1
T: Jump At The Sun
R: jig
M: 6/8
L: 1/8
K: Dmin
DFA ^G2 A|DFA ^G2 A|dAA dAA|BAG F3|
DFA ^G2 A|DFA ^G2 A|dAA BAG|FGE D3:|
d2 e fed|e2 f gfe|d2 e fed|A^GA B2 A|
d2 e fed|e2 f gfe|dAA BAG|FGE D3:|


Tune 736	Setting 13819

